icon-themes/sifr_svg/cmd/lc_insertpagenumberfield.svg

<svg viewBox="0 0 24 24" xmlns="http://www.w3.org/2000/svg"><path d="m4 2v21h5v-2h-3v-17h8v5h5v2h2v-3l-6-6zm8 10v2h-2v2h2v3h-2v2h2v2h2v-2h3v2h2v-2h2v-2h-2v-3h2v-2h-2v-2h-2v2h-3v-2zm2 4h3v3h-3z" fill="#555753"/></svg>

<svg xmlns="http://www.w3.org/2000/svg" viewBox="0 0 24 24">
  <path
     style="fill:#555753"
     d="M 4 2 L 4 23 L 9 23 L 9 21 L 6 21 L 6 4 L 14 4 L 14 9 L 19 9 L 19 11 L 21 11 L 21 8 L 15 2 L 4 2 z M 12 12 L 12 14 L 10 14 L 10 16 L 12 16 L 12 19 L 10 19 L 10 21 L 12 21 L 12 23 L 14 23 L 14 21 L 17 21 L 17 23 L 19 23 L 19 21 L 21 21 L 21 19 L 19 19 L 19 16 L 21 16 L 21 14 L 19 14 L 19 12 L 17 12 L 17 14 L 14 14 L 14 12 L 12 12 z M 14 16 L 17 16 L 17 19 L 14 19 L 14 16 z "
     />
</svg>
